assets/logos/icons/chat.svg

<svg height="24" viewBox="0 0 24 24" width="24" xmlns="http://www.w3.org/2000/svg"><path d="m22 7.63819035h-2v-3.58793935h-16v14.8643201l3.8-2.2552761 1 1.7427134-3.8 2.2552761c-.9.6150753-2.1.3075377-2.7-.7175878-.2-.3075377-.3-.6150754-.3-1.0251256v-14.8643201c0-1.12763808.9-2.05025105 2-2.05025105h16c1.1 0 2 .92261297 2 2.05025105zm-2 1.53768829c1.1 0 2 .92261296 2 2.05025106v9.7386925c0 .3075376-.1.7175879-.3 1.0251255-.5.922613-1.7 1.3326632-2.7.7175879l-3.8-2.2552762h-3.2c-1.1 0-2-.9226129-2-2.050251v-7.1758787c0-1.1276381.9-2.05025106 2-2.05025106zm0 2.05025106h-8v7.1758787h3.2c.3 0 .7.1025125 1 .3075376l3.8 2.2552762z" fill="#492f5c" fill-rule="evenodd"/></svg>

<svg xmlns="http://www.w3.org/2000/svg" width="24" height="24" viewBox="0 0 24 24">
  <path fill="#492F5C" fill-rule="evenodd" d="M22,7.63819035 L20,7.63819035 L20,4.050251 L4,4.050251 L4,18.9145711 L7.8,16.659295 L8.8,18.4020084 L5,20.6572845 C4.1,21.2723598 2.9,20.9648222 2.3,19.9396967 C2.1,19.632159 2,19.3246213 2,18.9145711 L2,4.050251 C2,2.92261292 2.9,1.99999995 4,1.99999995 L20,1.99999995 C21.1,1.99999995 22,2.92261292 22,4.050251 L22,7.63819035 Z M20,9.17587864 C21.1,9.17587864 22,10.0984916 22,11.2261297 L22,20.9648222 C22,21.2723598 21.9,21.6824101 21.7,21.9899477 C21.2,22.9125607 20,23.3226109 19,22.7075356 L15.2,20.4522594 L12,20.4522594 C10.9,20.4522594 10,19.5296465 10,18.4020084 L10,11.2261297 C10,10.0984916 10.9,9.17587864 12,9.17587864 L20,9.17587864 Z M20,11.2261297 L12,11.2261297 L12,18.4020084 L15.2,18.4020084 C15.5,18.4020084 15.9,18.5045209 16.2,18.709546 L20,20.9648222 L20,11.2261297 Z"/>
</svg>
